src/assets/filled/BookSaved.svg

<svg width="24" height="24" viewBox="0 0 24 24"  xmlns="http://www.w3.org/2000/svg">
<path d="M11.25 6.00008V19.9101C11.25 20.6201 10.53 21.1101 9.88 20.8401C8.02 20.0601 5.71 19.3801 4.07 19.1601L3.76 19.1201C2.79 19.0001 2 18.1101 2 17.1401V5.25008C2 4.05008 2.97 3.08008 4.17 3.08008H4.24C6.12 3.24008 8.89 4.12008 10.72 5.11008C11.05 5.29008 11.25 5.62008 11.25 6.00008Z" />
<path d="M19.83 3.08008H19.77C19.53 3.10008 19.27 3.13008 19 3.18008C17.77 3.38008 16.31 3.80008 15 4.32008C14.38 4.57008 13.8 4.84008 13.29 5.11008C12.96 5.29008 12.75 5.63008 12.75 6.00008V19.9101C12.75 20.6201 13.47 21.1101 14.12 20.8401C15.98 20.0601 18.29 19.3801 19.93 19.1601L20.24 19.1201C21.21 19.0001 22 18.1101 22 17.1401V5.25008C22 4.05008 21.03 3.08008 19.83 3.08008ZM19.27 13.7301C19.27 14.1201 18.99 14.2901 18.65 14.1001L17.59 13.5101C17.48 13.4501 17.3 13.4501 17.18 13.5101L16.12 14.1001C15.78 14.2901 15.5 14.1201 15.5 13.7301V10.6601C15.5 10.2001 15.88 9.82008 16.34 9.82008H18.44C18.9 9.82008 19.28 10.2001 19.28 10.6601V13.7301H19.27Z" />
</svg>

<?xml version="1.0" encoding="UTF-8"?>
<svg width="24" height="24" viewBox="0 0 24 24" xmlns="http://www.w3.org/2000/svg">
 <path d="m11.25 6.0001v13.91c0 0.71-0.72 1.2-1.37 0.93-1.86-0.78-4.17-1.46-5.81-1.68l-0.31-0.04c-0.97-0.12-1.76-1.01-1.76-1.98v-11.89c0-1.2 0.97-2.17 2.17-2.17h0.07c1.88 0.16 4.65 1.04 6.48 2.03 0.33 0.18 0.53 0.51 0.53 0.89z"/>
 <path d="m19.83 3.0801h-0.06c-0.24 0.02-0.5 0.05-0.77 0.1-1.23 0.2-2.69 0.62-4 1.14-0.62 0.25-1.2 0.52-1.71 0.79-0.33 0.18-0.54 0.52-0.54 0.89v13.91c0 0.71 0.72 1.2 1.37 0.93 1.86-0.78 4.17-1.46 5.81-1.68l0.31-0.04c0.97-0.12 1.76-1.01 1.76-1.98v-11.89c0-1.2-0.97-2.17-2.17-2.17zm-0.56 10.65c0 0.39-0.28 0.56-0.62 0.37l-1.06-0.59c-0.11-0.06-0.29-0.06-0.41 0l-1.06 0.59c-0.34 0.19-0.62 0.02-0.62-0.37v-3.07c0-0.46 0.38-0.84002 0.84-0.84002h2.1c0.46 0 0.84 0.38002 0.84 0.84002v3.07h-0.01z"/>
</svg>
